project/images/official/editable/539.svg

<?xml version="1.0" encoding="UTF-8" standalone="no"?>
<svg
   width="50.013096pt"
   height="35.72364pt"
   viewBox="0 0 50.013096 35.723641"
   version="1.1"
   id="svg3513"
   xmlns="http://www.w3.org/2000/svg"
   xmlns:svg="http://www.w3.org/2000/svg">
  <defs
     id="defs3517" />
  <g
     id="layer2"
     style="display:inline"
     transform="matrix(0.74036996,0,0,1,0.09569061,-0.14695251)" />
  <rect
     style="display:inline;fill:#ffffff;stroke:none;stroke-width:0;stroke-linecap:square;stroke-miterlimit:4;stroke-dasharray:none;stroke-opacity:1"
     id="rect3621"
     width="50.013096"
     height="35.72364"
     x="0"
     y="0" />
  <rect
     style="display:inline;fill:none;stroke:#000000;stroke-width:0.151095;stroke-linecap:square;stroke-miterlimit:4;stroke-dasharray:none;stroke-opacity:1"
     id="rect3621-4"
     width="49.147533"
     height="34.858074"
     x="0.43278173"
     y="0.43278307" />
  <g
     id="surface1-0"
     transform="translate(4.4522016,3.8709317)">
    <path
       style="fill:#211e1e;fill-opacity:1;fill-rule:nonzero;stroke:none"
       d="M 40.199219,15.542969 29.160156,26.625 c -0.113281,0.109375 -0.457031,0.425781 -0.582031,0.539062 -0.191406,0.171876 -0.472656,0.410157 -0.710937,0.527344 -0.269532,0.113282 -0.621094,0.160156 -0.90625,0.164063 H 7.441406 c -0.246094,0 -0.671875,0 -0.902344,-0.05078 C 6.257812,27.757812 5.992188,27.648438 5.769531,27.46875 5.546875,27.289062 5.375,27.050781 5.273438,26.796875 5.207031,26.632812 5.148438,26.386719 5.105469,26.214844 H 4.558594 c 0.039062,0.253906 0.101562,0.605468 0.195312,0.84375 0.136719,0.328125 0.359375,0.632812 0.648438,0.855468 0.265625,0.203126 0.578125,0.347657 0.90625,0.417969 0.324218,0.07422 0.734375,0.09375 1.074218,0.09375 h 18.605469 c 0.15625,0 0.914063,0 1.070313,-0.01563 0.347656,-0.01563 0.75,-0.07813 1.058594,-0.230468 0.261718,-0.113282 0.535156,-0.335938 0.742187,-0.523438 0.210937,-0.1875 0.542969,-0.519531 0.734375,-0.714844 L 40.199219,16.292969 v -0.75"
       id="path5600" />
    <path
       style="fill:#211e1e;fill-opacity:1;fill-rule:nonzero;stroke:none"
       d="M 40.199219,9.539062 V 8.984375 H 28.507812 L 23.503906,4.15625 H 2.304688 c -0.136719,0 -0.460938,0 -0.597657,0.035156 -0.226562,0.054688 -0.429687,0.1875 -0.582031,0.375 -0.144531,0.171875 -0.207031,0.394532 -0.214844,0.625 -0.007812,0.230469 0.050782,0.46875 0.195313,0.65625 0.136719,0.1875 0.324219,0.316406 0.53125,0.378906 0.171875,0.050782 0.46875,0.066407 0.648437,0.066407 H 2.78125 L 15.785156,19.308594 16.1875,18.898438 3.585938,6.292969 h 9.742187 l 6.554687,6.472656 3.222657,-3.226563 -3.222657,-3.246093 h 2.800782 l 3.871094,3.765625 c 0.09375,0.09375 0.28125,0.273437 0.40625,0.351562 0.128906,0.09375 0.292968,0.167969 0.464843,0.195313 0.21875,0.03516 0.457031,-0.01563 0.644531,-0.144531 0.183594,-0.121094 0.316407,-0.308594 0.371094,-0.511719 0.03516,-0.121094 0.05859,-0.289063 0.06641,-0.410157 h 11.691407"
       id="path5602" />
    <path
       style="fill:#211e1e;fill-opacity:1;fill-rule:nonzero;stroke:none"
       d="M 13.171875,3.6875 C 12.191406,3.679688 11.40625,2.878906 11.398438,1.886719 c 0,-1 0.816406,-1.8359378 1.832031,-1.8203128 0.976562,0.0117188 1.761719,0.8203128 1.761719,1.7968748 0,1 -0.820313,1.832031 -1.820313,1.824219"
       id="path5604" />
    <path
       style="fill:#211e1e;fill-opacity:1;fill-rule:nonzero;stroke:none"
       d="m 24.351562,10.765625 5.335938,5.277344 h 6.53125 c 0.1875,0 0.476562,0.0039 0.65625,0.05078 0.214844,0.05469 0.414062,0.179688 0.558594,0.34375 0.167968,0.207031 0.222656,0.460938 0.195312,0.726562 -0.01563,0.230469 -0.09766,0.441407 -0.257812,0.613282 -0.144532,0.15625 -0.332032,0.265625 -0.539063,0.316406 -0.152343,0.04297 -0.550781,0.05078 -0.714843,0.05078 h -5.566407 c -0.234375,0 -0.609375,-0.0078 -0.847656,-0.03125 -0.300781,-0.01953 -0.605469,-0.08594 -0.878906,-0.191406 -0.28125,-0.117187 -0.554688,-0.316406 -0.785157,-0.511719 -0.144531,-0.128906 -0.53125,-0.519531 -0.667968,-0.65625 l -3.019532,-2.996094 -5.046874,5.089844 v 7.128906 c 0,0.167969 -0.0078,0.476563 -0.05078,0.636719 -0.05469,0.230469 -0.179687,0.445313 -0.367187,0.582031 -0.171875,0.121094 -0.371094,0.1875 -0.574219,0.191407 -0.214844,0.0078 -0.441406,-0.03516 -0.605469,-0.148438 -0.195312,-0.125 -0.332031,-0.324219 -0.410156,-0.546875 -0.07813,-0.214844 -0.09375,-0.476562 -0.09375,-0.707031 v -6.625 c 0,-0.222656 0,-0.464844 0.03516,-0.683594 0.03125,-0.238281 0.09375,-0.472656 0.195313,-0.683593 0.08594,-0.203126 0.203125,-0.386719 0.339844,-0.546876 0.148437,-0.195312 0.34375,-0.402343 0.515624,-0.578124 l 6.0625,-6.101563"
       id="path5606" />
  </g>
</svg>

<?xml version="1.0" encoding="UTF-8"?>
<svg xmlns="http://www.w3.org/2000/svg" xmlns:xlink="http://www.w3.org/1999/xlink" width="41pt" height="29pt" viewBox="0 0 41 29" version="1.1">
<g id="surface1">
<path style=" stroke:none;fill-rule:nonzero;fill:rgb(13.729858%,12.159729%,12.548828%);fill-opacity:1;" d="M 40.199219 15.542969 L 29.160156 26.625 C 29.046875 26.734375 28.703125 27.050781 28.578125 27.164062 C 28.386719 27.335938 28.105469 27.574219 27.867188 27.691406 C 27.597656 27.804688 27.246094 27.851562 26.960938 27.855469 L 7.441406 27.855469 C 7.195312 27.855469 6.769531 27.855469 6.539062 27.804688 C 6.257812 27.757812 5.992188 27.648438 5.769531 27.46875 C 5.546875 27.289062 5.375 27.050781 5.273438 26.796875 C 5.207031 26.632812 5.148438 26.386719 5.105469 26.214844 L 4.558594 26.214844 C 4.597656 26.46875 4.660156 26.820312 4.753906 27.058594 C 4.890625 27.386719 5.113281 27.691406 5.402344 27.914062 C 5.667969 28.117188 5.980469 28.261719 6.308594 28.332031 C 6.632812 28.40625 7.042969 28.425781 7.382812 28.425781 L 25.988281 28.425781 C 26.144531 28.425781 26.902344 28.425781 27.058594 28.410156 C 27.40625 28.394531 27.808594 28.332031 28.117188 28.179688 C 28.378906 28.066406 28.652344 27.84375 28.859375 27.65625 C 29.070312 27.46875 29.402344 27.136719 29.59375 26.941406 L 40.199219 16.292969 L 40.199219 15.542969 "/>
<path style=" stroke:none;fill-rule:nonzero;fill:rgb(13.729858%,12.159729%,12.548828%);fill-opacity:1;" d="M 40.199219 9.539062 L 40.199219 8.984375 L 28.507812 8.984375 L 23.503906 4.15625 L 2.304688 4.15625 C 2.167969 4.15625 1.84375 4.15625 1.707031 4.191406 C 1.480469 4.246094 1.277344 4.378906 1.125 4.566406 C 0.980469 4.738281 0.917969 4.960938 0.910156 5.191406 C 0.902344 5.421875 0.960938 5.660156 1.105469 5.847656 C 1.242188 6.035156 1.429688 6.164062 1.636719 6.226562 C 1.808594 6.277344 2.105469 6.292969 2.285156 6.292969 L 2.78125 6.292969 L 15.785156 19.308594 L 16.1875 18.898438 L 3.585938 6.292969 L 13.328125 6.292969 L 19.882812 12.765625 L 23.105469 9.539062 L 19.882812 6.292969 L 22.683594 6.292969 L 26.554688 10.058594 C 26.648438 10.152344 26.835938 10.332031 26.960938 10.410156 C 27.089844 10.503906 27.253906 10.578125 27.425781 10.605469 C 27.644531 10.640625 27.882812 10.589844 28.070312 10.460938 C 28.253906 10.339844 28.386719 10.152344 28.441406 9.949219 C 28.476562 9.828125 28.5 9.660156 28.507812 9.539062 L 40.199219 9.539062 "/>
<path style=" stroke:none;fill-rule:nonzero;fill:rgb(13.729858%,12.159729%,12.548828%);fill-opacity:1;" d="M 13.171875 3.6875 C 12.191406 3.679688 11.40625 2.878906 11.398438 1.886719 C 11.398438 0.886719 12.214844 0.0507812 13.230469 0.0664062 C 14.207031 0.078125 14.992188 0.886719 14.992188 1.863281 C 14.992188 2.863281 14.171875 3.695312 13.171875 3.6875 "/>
<path style=" stroke:none;fill-rule:nonzero;fill:rgb(13.729858%,12.159729%,12.548828%);fill-opacity:1;" d="M 24.351562 10.765625 L 29.6875 16.042969 L 36.21875 16.042969 C 36.40625 16.042969 36.695312 16.046875 36.875 16.09375 C 37.089844 16.148438 37.289062 16.273438 37.433594 16.4375 C 37.601562 16.644531 37.65625 16.898438 37.628906 17.164062 C 37.613281 17.394531 37.53125 17.605469 37.371094 17.777344 C 37.226562 17.933594 37.039062 18.042969 36.832031 18.09375 C 36.679688 18.136719 36.28125 18.144531 36.117188 18.144531 L 30.550781 18.144531 C 30.316406 18.144531 29.941406 18.136719 29.703125 18.113281 C 29.402344 18.09375 29.097656 18.027344 28.824219 17.921875 C 28.542969 17.804688 28.269531 17.605469 28.039062 17.410156 C 27.894531 17.28125 27.507812 16.890625 27.371094 16.753906 L 24.351562 13.757812 L 19.304688 18.847656 L 19.304688 25.976562 C 19.304688 26.144531 19.296875 26.453125 19.253906 26.613281 C 19.199219 26.84375 19.074219 27.058594 18.886719 27.195312 C 18.714844 27.316406 18.515625 27.382812 18.3125 27.386719 C 18.097656 27.394531 17.871094 27.351562 17.707031 27.238281 C 17.511719 27.113281 17.375 26.914062 17.296875 26.691406 C 17.21875 26.476562 17.203125 26.214844 17.203125 25.984375 L 17.203125 19.359375 C 17.203125 19.136719 17.203125 18.894531 17.238281 18.675781 C 17.269531 18.4375 17.332031 18.203125 17.433594 17.992188 C 17.519531 17.789062 17.636719 17.605469 17.773438 17.445312 C 17.921875 17.25 18.117188 17.042969 18.289062 16.867188 L 24.351562 10.765625 "/>
</g>
</svg>
